icons/web.svg

<svg xmlns="http://www.w3.org/2000/svg" viewBox="0 0 40 40"><path d="M32 25c.6-1.5 1-3.2 1-5 0-1.8-.4-3.5-1-5-2-4.7-6.6-8-12-8s-10 3.3-12 8c-.6 1.5-1 3.2-1 5 0 1.8.4 3.5 1 5 2 4.7 6.6 8 12 8s10-3.3 12-8zm-12 6c-.7 0-2-2.1-2.6-6h5.3c-.7 3.9-2 6-2.7 6zm-2.9-8c-.1-.9-.1-1.9-.1-3s0-2.1.1-3h5.7c.1.9.1 1.9.1 3s0 2.1-.1 3h-5.7zM9 20c0-1 .2-2 .4-3h5.7c-.1 1-.1 2-.1 3s0 2 .1 3H9.4c-.2-1-.4-2-.4-3zM20 9c.7 0 2 2.1 2.6 6h-5.3c.7-3.9 2-6 2.7-6zm4.9 8h5.7c.3 1 .4 2 .4 3s-.2 2-.4 3h-5.7c.1-1 .1-2 .1-3s0-2-.1-3zm4.9-2h-5.1c-.3-2.2-.9-4.1-1.6-5.6 2.9.9 5.3 2.9 6.7 5.6zM17 9.4c-.7 1.4-1.3 3.4-1.6 5.6h-5.1c1.3-2.7 3.7-4.7 6.7-5.6zM10.2 25h5.1c.3 2.2.9 4.1 1.6 5.6-2.9-.9-5.3-2.9-6.7-5.6zM23 30.6c.7-1.4 1.3-3.4 1.6-5.6h5.1c-1.3 2.7-3.7 4.7-6.7 5.6z"/></svg>

<?xml version="1.0" encoding="utf-8"?>
<!-- Generator: Adobe Illustrator 21.1.0, SVG Export Plug-In . SVG Version: 6.00 Build 0)  -->
<svg version="1.1" id="Layer_1" xmlns="http://www.w3.org/2000/svg" xmlns:xlink="http://www.w3.org/1999/xlink" x="0px" y="0px"
	 viewBox="0 0 40 40" style="enable-background:new 0 0 40 40;" xml:space="preserve">
<path d="M32,25c0.6-1.5,1-3.2,1-5c0-1.8-0.4-3.5-1-5v0h0c-2-4.7-6.6-8-12-8c-5.4,0-10,3.3-12,8h0v0c-0.6,1.5-1,3.2-1,5
	c0,1.8,0.4,3.5,1,5v0h0c2,4.7,6.6,8,12,8C25.4,33,30,29.7,32,25L32,25L32,25z M20,31c-0.7,0-2-2.1-2.6-6h5.3C22,28.9,20.7,31,20,31z
	 M17.1,23C17,22.1,17,21.1,17,20s0-2.1,0.1-3h5.7c0.1,0.9,0.1,1.9,0.1,3s0,2.1-0.1,3H17.1z M9,20c0-1,0.2-2,0.4-3h5.7
	C15,18,15,19,15,20s0,2,0.1,3H9.4C9.2,22,9,21,9,20z M20,9c0.7,0,2,2.1,2.6,6h-5.3C18,11.1,19.3,9,20,9z M24.9,17h5.7
	c0.3,1,0.4,2,0.4,3s-0.2,2-0.4,3h-5.7c0.1-1,0.1-2,0.1-3S25,18,24.9,17z M29.8,15h-5.1c-0.3-2.2-0.9-4.1-1.6-5.6
	C26,10.3,28.4,12.3,29.8,15z M17,9.4c-0.7,1.4-1.3,3.4-1.6,5.6h-5.1C11.6,12.3,14,10.3,17,9.4z M10.2,25h5.1
	c0.3,2.2,0.9,4.1,1.6,5.6C14,29.7,11.6,27.7,10.2,25z M23,30.6c0.7-1.4,1.3-3.4,1.6-5.6h5.1C28.4,27.7,26,29.7,23,30.6z"/>
</svg>
